X:1
T:Gjæste-Budet
T:Gjæste-Budet
T:Ludvig M. Lindeman: Norske Fjeldmelodier, Nr. 611
T:Urskoug
C:Urskoug
L:1/8
Q:1/4=80
M:3/4
K:C
V:1 treble nm="Piano" snm="Pno."
V:1
!mf!"^Allegretto" E/ E3/2 ^G/ | A2 A3/2 ^G/ A3/2 B/ | c2 B3/2 A/ B3/2 ^G/ | E2 z E E3/2 ^G/ | %4
w: Aa kjæ- re|Jo- kom, nu hold dig|hjem- me i den- ne|Dag, da du al-|
 A2 A3/2 ^G/ A3/2 B/ | c2 B3/2 A/ B3/2 ^G/ | E2 z!p! E E F | E ^D E E E F | E ^D E E E F | %9
w: e- ne er fun- den|vær- dig aa be te|Lag for Sö- ren|Sö- ren- sen aa Gu- ri|Björ- ke- bæk aa An- ders|
 E ^D E E E F | E ^D E"^cresc." E E F | E ^D E E E F | E ^D E E E ^G | A2 A3/2 ^G/ A3/2 B/ | %14
w: An- der- sen aa han, som|stjal en Sæk aa O- le|Röt- te- berg aa O- le|Ty- ve- töi aa O- le|Jen- sen aa Ja- kob|
 c2 e3/2 c/ B3/2 ^G/ | A2 z |] %16
w: Ben- sen, den lær- de|Præst.|

